src/images/nobadvibes.svg

<svg width="342" height="194" viewBox="0 0 342 194" fill="none" xmlns="http://www.w3.org/2000/svg">
<path d="M15.1841 163.025C5.88699 162.049 -0.883398 153.694 0.0937914 144.401L13.6787 15.1773C14.6559 5.88436 23.0145 -0.883002 32.3116 0.0937494L326.328 30.9745C335.625 31.9513 342.395 40.3061 341.418 49.6009L327.833 178.823C326.856 188.116 318.497 194.883 309.198 193.906L15.1841 163.025Z" fill="white"/>
<path d="M325.891 35.1262L31.8754 4.24536C24.8565 3.50774 18.5683 8.59752 17.8303 15.6132L4.24723 144.835C3.50927 151.851 8.60133 158.136 15.6202 158.874L309.636 189.755C316.655 190.492 322.943 185.402 323.681 178.387L337.266 49.1649C338.004 42.1492 332.912 35.8638 325.893 35.1262H325.891Z" fill="#29837A"/>
<path d="M324.149 42.6364L32.0171 11.9542C28.6825 11.6048 25.6957 14.0218 25.3461 17.3549L11.9599 144.693C11.6102 148.026 14.0284 151.012 17.3629 151.361L309.495 182.043C312.829 182.393 315.816 179.976 316.166 176.643L329.552 49.3026C329.901 45.9695 327.483 42.984 324.149 42.6345V42.6364Z" fill="white"/>
<path d="M318.595 50.0846L35.9019 20.3939C34.6432 20.2614 33.5169 21.1738 33.3844 22.432L26.6987 86.0257C26.5662 87.2839 27.479 88.4097 28.7377 88.5421L311.43 118.233C312.689 118.365 313.815 117.453 313.948 116.195L320.634 52.6009C320.766 51.3427 319.853 50.217 318.595 50.0846Z" fill="#29837A"/>
<path d="M73.451 37.0889L84.5221 38.2514C84.9583 38.2974 85.3189 38.496 85.6023 38.8455C85.8857 39.1969 86.0054 39.5905 85.9594 40.0265L81.9181 78.4638C81.8721 78.9016 81.6734 79.2603 81.3237 79.5435C80.9722 79.8287 80.5784 79.9464 80.1422 79.9004L70.5581 78.8942C69.6048 78.7949 68.8558 78.2945 68.3092 77.3951L57.0707 59.4916L55.3684 75.6752C55.3224 76.1129 55.1236 76.4716 54.774 76.7549C54.4225 77.04 54.0287 77.1578 53.5925 77.1118L42.5214 75.9492C42.0853 75.9033 41.7246 75.7064 41.4412 75.3551C41.1559 75.0038 41.0381 74.612 41.0841 74.1742L45.1254 35.7369C45.1714 35.3009 45.3683 34.9404 45.7198 34.6571C46.0695 34.3738 46.4633 34.2542 46.9013 34.3002L56.5443 35.3138C57.4976 35.4131 58.2282 35.8914 58.7416 36.7467L69.8348 56.0187L71.6733 38.5255C71.7193 38.0895 71.9162 37.729 72.2677 37.4457C72.6192 37.1624 73.0112 37.0429 73.4491 37.0889H73.451Z" fill="white"/>
<path d="M136.816 61.2224L136.072 68.2988C135.652 72.283 134.311 75.5058 132.047 77.9651C129.782 80.4245 126.985 82.0469 123.652 82.8305C120.319 83.6141 116.471 83.776 112.106 83.3179C107.741 82.8599 104.011 81.9016 100.913 80.4429C97.8163 78.9842 95.4166 76.8155 93.7125 73.9386C92.0084 71.0616 91.3698 67.5924 91.7968 63.5309L92.5163 56.6845C93.131 50.846 95.6429 46.6907 100.056 44.2203C104.469 41.7517 109.947 40.8596 116.495 41.5476C123.043 42.2355 128.218 44.246 132.022 47.5773C135.824 50.9086 137.423 55.4575 136.816 61.2187V61.2224ZM108.702 57.297L107.756 66.2975C107.594 67.8352 108.015 69.0732 109.02 70.0132C110.025 70.9531 111.458 71.5197 113.324 71.7165C115.189 71.9115 116.712 71.6466 117.892 70.9163C119.072 70.1861 119.743 69.053 119.905 67.5152L120.84 58.6269C121.002 57.0891 120.581 55.842 119.579 54.8836C118.576 53.9253 117.143 53.3477 115.277 53.1509C113.411 52.954 111.891 53.2116 110.713 53.9234C109.533 54.6335 108.865 55.7574 108.703 57.2952L108.702 57.297Z" fill="white"/>
<path d="M205.865 79.8727C204.946 88.5991 198.894 92.3755 187.703 91.2001L163.178 88.6249C162.741 88.5789 162.381 88.3821 162.097 88.0307C161.812 87.6794 161.694 87.2876 161.74 86.8498L165.782 48.4125C165.828 47.9766 166.024 47.616 166.376 47.3327C166.726 47.0495 167.119 46.9299 167.557 46.9759L191.487 49.4886C197.121 50.0809 201.172 51.5396 203.634 53.8628C206.098 56.1879 207.114 59.4125 206.68 63.5365L206.661 63.715C206.461 65.6188 205.774 67.1915 204.6 68.4313C203.426 69.6711 202.265 70.4124 201.117 70.6515C202.615 71.2898 203.835 72.4708 204.777 74.1943C205.719 75.9179 206.082 77.8107 205.865 79.8727ZM189.663 64.2447C190.139 63.7131 190.415 63.0914 190.491 62.3758C190.566 61.6621 190.423 61.0257 190.06 60.4665C189.698 59.9073 189.12 59.5854 188.327 59.5026L180.351 58.6656L179.782 64.0792L187.758 64.9161C188.551 64.9989 189.188 64.7763 189.665 64.2447H189.663ZM178.735 74.0159L178.122 79.847L186.753 80.7538C187.666 80.8495 188.382 80.6141 188.905 80.0475C189.425 79.4809 189.725 78.8206 189.805 78.0664L189.81 78.0075C189.889 77.2552 189.711 76.5746 189.273 75.9657C188.835 75.3587 188.2 75.0111 187.366 74.9228L178.735 74.0159Z" fill="white"/>
<path d="M221.156 94.7116L209.906 93.5307C209.549 93.4939 209.254 93.332 209.024 93.0469C208.793 92.7618 208.691 92.5006 208.715 92.2633C208.741 92.026 208.778 91.8494 208.831 91.7335L225.804 55.0768C226.299 53.8058 227.262 53.2447 228.69 53.3956L245.237 55.1338C246.666 55.2847 247.49 56.0315 247.709 57.378L256.69 96.7608C256.717 96.884 256.717 97.0643 256.693 97.3015C256.667 97.5388 256.513 97.7743 256.228 98.0042C255.942 98.236 255.622 98.3316 255.265 98.2949L244.016 97.1139C242.746 96.9796 241.923 96.2126 241.55 94.8091L240.499 90.4882L225.975 88.9633L224.049 92.9715C223.39 94.2664 222.427 94.8459 221.157 94.7134L221.156 94.7116ZM238.681 78.5648L235.755 65.7457L230.226 77.6782L238.679 78.5667L238.681 78.5648Z" fill="white"/>
<path d="M268.213 57.5455L287.201 59.5394C291.567 59.9975 295.295 60.9705 298.388 62.4587C301.482 63.9468 303.876 66.1633 305.573 69.1083C307.27 72.0533 307.903 75.5703 307.474 79.6539L306.835 85.7223C306.167 92.0684 303.539 96.4647 298.95 98.9112C294.745 101.117 289.369 101.875 282.821 101.188L263.833 99.1945C263.396 99.1485 263.037 98.9517 262.753 98.6003C262.468 98.249 262.35 97.8572 262.396 97.4194L266.437 58.9821C266.483 58.5461 266.68 58.1856 267.034 57.9023C267.383 57.6191 267.777 57.4995 268.215 57.5455H268.213ZM280.863 70.6038L278.924 89.048L284.34 89.6164C286.204 89.8114 287.73 89.5208 288.915 88.7427C290.1 87.9646 290.777 86.7634 290.948 85.1355L291.811 76.9242C291.982 75.2981 291.568 73.981 290.571 72.9748C289.573 71.9668 288.142 71.3653 286.278 71.1703L280.862 70.6019L280.863 70.6038Z" fill="white"/>
<path d="M71.1506 102.395L84.684 103.817C85.0687 103.857 85.3852 104.032 85.6336 104.337C85.8821 104.645 85.9925 104.926 85.9667 105.182C85.9391 105.437 85.8949 105.651 85.8361 105.816L66.7855 145.168C66.1671 146.529 65.1311 147.132 63.6772 146.98L48.7342 145.411C47.3227 145.262 46.4504 144.522 46.1136 143.191L35.5541 100.535C35.5283 100.361 35.5302 100.144 35.5578 99.8879C35.5854 99.6322 35.751 99.3802 36.0583 99.13C36.3656 98.8817 36.7116 98.7768 37.0962 98.8173L50.6297 100.239C51.3989 100.32 52.0062 100.611 52.4515 101.111C52.895 101.611 53.1766 102.126 53.2944 102.658L58.0883 127.986L68.0442 104.207C68.5779 102.837 69.614 102.233 71.1525 102.395H71.1506Z" fill="#29837A"/>
<path d="M134.353 122.32L122.745 121.1L120.79 139.692L132.399 140.911C132.868 140.961 133.256 141.174 133.564 141.551C133.869 141.93 133.998 142.353 133.948 142.822L132.931 152.504C132.881 152.974 132.668 153.363 132.29 153.668C131.911 153.975 131.488 154.102 131.019 154.052L90.3558 149.781C89.8847 149.731 89.4964 149.518 89.1909 149.141C88.8836 148.764 88.7566 148.339 88.8063 147.87L89.824 138.189C89.8736 137.72 90.0871 137.332 90.4644 137.024C90.8416 136.719 91.2667 136.59 91.7378 136.64L103.475 137.872L105.43 119.281L93.6922 118.049C93.2211 117.999 92.8328 117.786 92.5273 117.409C92.22 117.031 92.093 116.607 92.1427 116.137L93.1604 106.456C93.2101 105.987 93.4235 105.599 93.8008 105.292C94.1781 104.987 94.6032 104.858 95.0743 104.908L135.737 109.179C136.206 109.228 136.595 109.442 136.902 109.819C137.207 110.198 137.336 110.621 137.287 111.09L136.269 120.771C136.219 121.242 136.006 121.63 135.629 121.935C135.249 122.243 134.826 122.37 134.357 122.32H134.353Z" fill="#29837A"/>
<path d="M191.12 146.106C190.132 155.509 183.608 159.576 171.551 158.311L145.126 155.535C144.655 155.485 144.267 155.272 143.961 154.895C143.654 154.518 143.527 154.093 143.577 153.624L147.931 112.21C147.98 111.741 148.192 111.353 148.571 111.046C148.948 110.741 149.374 110.612 149.843 110.661L175.625 113.369C181.696 114.007 186.06 115.578 188.715 118.082C191.371 120.587 192.464 124.06 191.996 128.506L191.976 128.699C191.761 130.75 191.021 132.444 189.757 133.782C188.491 135.119 187.241 135.915 186.004 136.175C187.618 136.863 188.932 138.136 189.948 139.992C190.962 141.848 191.354 143.889 191.12 146.11V146.106ZM173.663 129.268C174.177 128.696 174.475 128.024 174.556 127.255C174.637 126.486 174.482 125.8 174.092 125.197C173.702 124.595 173.078 124.248 172.224 124.158L163.63 123.254L163.017 129.087L171.612 129.991C172.467 130.081 173.152 129.84 173.665 129.266L173.663 129.268ZM161.889 139.795L161.229 146.077L170.528 147.053C171.51 147.156 172.283 146.904 172.845 146.292C173.406 145.681 173.73 144.969 173.814 144.158L173.822 144.094C173.906 143.282 173.713 142.548 173.242 141.894C172.769 141.239 172.086 140.865 171.188 140.77L161.889 139.793V139.795Z" fill="#29837A"/>
<path d="M216.22 150.362L241.811 153.05C242.28 153.099 242.668 153.313 242.976 153.69C243.281 154.069 243.41 154.492 243.36 154.961L242.411 164C242.361 164.471 242.148 164.859 241.77 165.164C241.391 165.472 240.968 165.599 240.499 165.549L199.965 161.292C199.494 161.243 199.105 161.029 198.8 160.652C198.492 160.275 198.366 159.85 198.415 159.381L202.769 117.968C202.819 117.499 203.032 117.11 203.41 116.803C203.787 116.498 204.212 116.369 204.683 116.419L244.575 120.609C245.044 120.659 245.432 120.872 245.74 121.249C246.045 121.628 246.174 122.051 246.124 122.52L245.175 131.559C245.125 132.03 244.912 132.418 244.534 132.724C244.155 133.031 243.732 133.158 243.261 133.108L218.312 130.487L217.887 134.526L239.308 136.776C239.777 136.826 240.166 137.039 240.473 137.416C240.778 137.795 240.907 138.218 240.858 138.687L239.982 147.022C239.932 147.493 239.718 147.881 239.341 148.186C238.962 148.493 238.539 148.62 238.068 148.571L216.647 146.321L216.222 150.36L216.22 150.362Z" fill="#29837A"/>
<path d="M295.238 147.237C297.985 149.675 299.137 153.019 298.69 157.27C298.243 161.521 295.722 164.742 291.125 166.929C286.528 169.116 280.661 169.835 273.521 169.085C266.379 168.334 260.968 166.45 257.288 163.43C253.605 160.41 251.965 156.996 252.367 153.184C252.464 152.254 253.005 151.838 253.988 151.943L267.135 153.324C268.033 153.418 268.732 153.758 269.233 154.341C270.315 155.559 272.332 156.322 275.282 156.631C279.343 157.058 281.438 156.674 281.563 155.476C281.64 154.733 281.062 154.078 279.824 153.51C278.587 152.943 276.086 152.252 272.324 151.439C260.372 148.766 254.792 143.652 255.587 136.098C256.034 131.847 258.34 128.615 262.507 126.404C266.673 124.193 272.017 123.427 278.537 124.112C285.057 124.796 290.179 126.759 293.902 130C297.625 133.241 299.321 136.431 298.992 139.567C298.948 139.99 298.773 140.314 298.467 140.54C298.162 140.764 297.776 140.853 297.304 140.803L283.515 139.355C282.746 139.274 282.107 138.962 281.603 138.419C280.67 137.424 279.178 136.817 277.126 136.602C274.26 136.3 272.768 136.729 272.647 137.884C272.582 138.504 273.086 139.046 274.161 139.513C275.236 139.981 277.422 140.577 280.718 141.298C287.647 142.819 292.487 144.796 295.236 147.236L295.238 147.237Z" fill="#29837A"/>
</svg>

<svg width="342" height="194" fill="none" xmlns="http://www.w3.org/2000/svg"><path d="M15.184 163.025c-9.297-.976-16.067-9.331-15.09-18.624L13.679 15.177C14.656 5.884 23.015-.883 32.312.094l294.016 30.88c9.297.977 16.067 9.332 15.09 18.627l-13.585 129.222c-.977 9.293-9.336 16.06-18.635 15.083L15.184 163.025z" fill="#fff"/><path d="M325.891 35.126 31.875 4.246c-7.018-.738-13.307 4.352-14.045 11.367L4.247 144.835c-.738 7.016 4.354 13.301 11.373 14.039l294.016 30.881c7.019.737 13.307-4.353 14.045-11.368l13.585-129.222c.738-7.016-4.354-13.301-11.373-14.039h-.002z" fill="#29837A"/><path d="M324.149 42.636 32.017 11.954a6.07 6.07 0 0 0-6.67 5.4L11.96 144.694a6.067 6.067 0 0 0 5.403 6.668l292.132 30.682a6.069 6.069 0 0 0 6.671-5.4l13.386-127.34a6.069 6.069 0 0 0-5.403-6.668v.001z" fill="#fff"/><path d="M318.595 50.085 35.902 20.394a2.29 2.29 0 0 0-2.518 2.038L26.7 86.026a2.29 2.29 0 0 0 2.039 2.516l282.692 29.691a2.29 2.29 0 0 0 2.518-2.038l6.686-63.594a2.29 2.29 0 0 0-2.039-2.516z" fill="#29837A"/><path d="m73.451 37.089 11.071 1.162c.436.046.797.245 1.08.595.284.35.403.745.357 1.18l-4.04 38.438a1.55 1.55 0 0 1-.595 1.08 1.55 1.55 0 0 1-1.182.356l-9.584-1.006c-.953-.1-1.702-.6-2.249-1.499L57.071 59.492l-1.703 16.183a1.551 1.551 0 0 1-.594 1.08 1.551 1.551 0 0 1-1.181.357L42.52 75.949a1.549 1.549 0 0 1-1.08-.594 1.547 1.547 0 0 1-.357-1.18l4.041-38.438c.046-.436.243-.797.595-1.08.35-.283.743-.403 1.181-.357l9.643 1.014c.954.1 1.684.577 2.198 1.433l11.093 19.272 1.838-17.493c.046-.437.243-.797.595-1.08a1.556 1.556 0 0 1 1.181-.357h.002zM136.816 61.222l-.744 7.077c-.42 3.984-1.761 7.207-4.025 9.666-2.265 2.46-5.062 4.082-8.395 4.865-3.333.784-7.181.946-11.546.488-4.365-.458-8.095-1.416-11.193-2.875-3.097-1.459-5.496-3.627-7.2-6.504-1.705-2.877-2.343-6.347-1.916-10.408l.72-6.846c.614-5.839 3.126-9.994 7.539-12.465 4.413-2.468 9.891-3.36 16.439-2.672 6.548.688 11.723 2.698 15.527 6.03 3.802 3.33 5.401 7.88 4.794 13.64v.004zm-28.114-3.925-.946 9c-.162 1.538.259 2.776 1.264 3.716 1.005.94 2.438 1.507 4.304 1.703 1.865.196 3.388-.07 4.568-.8 1.18-.73 1.851-1.863 2.013-3.4l.935-8.89c.162-1.537-.259-2.784-1.261-3.742-1.003-.959-2.436-1.536-4.302-1.733-1.866-.197-3.386.06-4.564.772-1.18.71-1.848 1.834-2.01 3.372l-.001.002zM205.865 79.873c-.919 8.726-6.971 12.502-18.162 11.327l-24.525-2.575a1.55 1.55 0 0 1-1.081-.594 1.548 1.548 0 0 1-.357-1.181l4.042-38.437c.046-.436.242-.797.594-1.08.35-.283.743-.403 1.181-.357l23.93 2.513c5.634.592 9.685 2.05 12.147 4.374 2.464 2.325 3.48 5.55 3.046 9.673l-.019.179c-.2 1.904-.887 3.477-2.061 4.716-1.174 1.24-2.335 1.981-3.483 2.22 1.498.639 2.718 1.82 3.66 3.543.942 1.724 1.305 3.617 1.088 5.679zm-16.202-15.628a3.246 3.246 0 0 0 .828-1.87c.075-.713-.068-1.35-.431-1.908-.362-.56-.94-.882-1.733-.964l-7.976-.837-.569 5.413 7.976.837c.793.083 1.43-.14 1.907-.671h-.002zm-10.928 9.77-.613 5.832 8.631.907c.913.096 1.629-.14 2.152-.707a3.39 3.39 0 0 0 .9-1.98l.005-.06a2.87 2.87 0 0 0-.537-2.041c-.438-.607-1.073-.955-1.907-1.043l-8.631-.907zM221.156 94.712l-11.25-1.181a1.262 1.262 0 0 1-.882-.484c-.231-.285-.333-.546-.309-.784.026-.237.063-.414.116-.53l16.973-36.656c.495-1.271 1.458-1.832 2.886-1.681l16.547 1.738c1.429.15 2.253.898 2.472 2.244l8.981 39.383c.027.123.027.303.003.54-.026.238-.18.473-.465.703a1.267 1.267 0 0 1-.963.29l-11.249-1.18c-1.27-.134-2.093-.901-2.466-2.305l-1.051-4.32-14.524-1.526-1.926 4.009c-.659 1.294-1.622 1.874-2.892 1.741l-.001-.001zm17.525-16.147-2.926-12.82-5.529 11.933 8.453.889.002-.002zM268.213 57.545l18.988 1.994c4.366.459 8.094 1.431 11.187 2.92 3.094 1.488 5.488 3.704 7.185 6.65 1.697 2.944 2.33 6.461 1.901 10.545l-.639 6.068c-.668 6.346-3.296 10.743-7.885 13.19-4.205 2.205-9.581 2.963-16.129 2.276l-18.988-1.993a1.548 1.548 0 0 1-1.08-.595 1.548 1.548 0 0 1-.357-1.18l4.041-38.438c.046-.436.243-.796.597-1.08a1.552 1.552 0 0 1 1.181-.357h-.002zm12.65 13.059-1.939 18.444 5.416.568c1.864.195 3.39-.095 4.575-.873s1.862-1.98 2.033-3.608l.863-8.21c.171-1.627-.243-2.944-1.24-3.95-.998-1.008-2.429-1.61-4.293-1.805l-5.416-.568.001.002z" fill="#fff"/><path d="m71.15 102.395 13.534 1.422c.385.04.701.215.95.52.248.308.359.589.333.845a2.85 2.85 0 0 1-.13.634l-19.052 39.352c-.618 1.361-1.654 1.964-3.108 1.812l-14.943-1.569c-1.411-.149-2.284-.889-2.62-2.22l-10.56-42.656a2.623 2.623 0 0 1 .004-.647c.027-.256.193-.508.5-.758a1.367 1.367 0 0 1 1.038-.313l13.534 1.422c.769.081 1.376.372 1.822.872.443.5.725 1.015.842 1.547l4.794 25.328 9.956-23.779c.534-1.37 1.57-1.974 3.109-1.812h-.002zM134.353 122.32l-11.608-1.22-1.955 18.592 11.609 1.219c.469.05.857.263 1.165.64.305.379.434.802.384 1.271l-1.017 9.682c-.05.47-.263.859-.641 1.164a1.667 1.667 0 0 1-1.271.384l-40.663-4.271a1.676 1.676 0 0 1-1.165-.64 1.665 1.665 0 0 1-.385-1.271l1.018-9.681c.05-.469.263-.857.64-1.165a1.675 1.675 0 0 1 1.274-.384l11.737 1.232 1.955-18.591-11.738-1.232a1.676 1.676 0 0 1-1.165-.64 1.667 1.667 0 0 1-.384-1.272l1.017-9.681a1.68 1.68 0 0 1 .64-1.164 1.676 1.676 0 0 1 1.274-.384l40.663 4.271a1.68 1.68 0 0 1 1.165.64c.305.379.434.802.385 1.271l-1.018 9.681c-.05.471-.263.859-.64 1.164-.38.308-.803.435-1.272.385h-.004zM191.12 146.106c-.988 9.403-7.512 13.47-19.569 12.205l-26.425-2.776a1.677 1.677 0 0 1-1.165-.64 1.664 1.664 0 0 1-.384-1.271l4.354-41.414a1.67 1.67 0 0 1 .64-1.164 1.68 1.68 0 0 1 1.272-.385l25.782 2.708c6.071.638 10.435 2.209 13.09 4.713 2.656 2.505 3.749 5.978 3.281 10.424l-.02.193c-.215 2.051-.955 3.745-2.219 5.083-1.266 1.337-2.516 2.133-3.753 2.393 1.614.688 2.928 1.961 3.944 3.817 1.014 1.856 1.406 3.897 1.172 6.118v-.004zm-17.457-16.838a3.488 3.488 0 0 0 .893-2.013c.081-.769-.074-1.455-.464-2.058-.39-.602-1.014-.949-1.868-1.039l-8.594-.904-.613 5.833 8.595.904c.855.09 1.54-.151 2.053-.725l-.002.002zm-11.774 10.527-.66 6.282 9.299.976c.982.103 1.755-.149 2.317-.761a3.638 3.638 0 0 0 .969-2.134l.008-.064a3.099 3.099 0 0 0-.58-2.2c-.473-.655-1.156-1.029-2.054-1.124l-9.299-.977v.002zM216.22 150.362l25.591 2.688c.469.049.857.263 1.165.64.305.379.434.802.384 1.271l-.949 9.039a1.67 1.67 0 0 1-.641 1.164 1.663 1.663 0 0 1-1.271.385l-40.534-4.257a1.672 1.672 0 0 1-1.165-.64 1.665 1.665 0 0 1-.385-1.271l4.354-41.413c.05-.469.263-.858.641-1.165a1.674 1.674 0 0 1 1.273-.384l39.892 4.19c.469.05.857.263 1.165.64.305.379.434.802.384 1.271l-.949 9.039c-.05.471-.263.859-.641 1.165a1.669 1.669 0 0 1-1.273.384l-24.949-2.621-.425 4.039 21.421 2.25c.469.05.858.263 1.165.64.305.379.434.802.385 1.271l-.876 8.335c-.05.471-.264.859-.641 1.164a1.674 1.674 0 0 1-1.273.385l-21.421-2.25-.425 4.039-.002.002zM295.238 147.237c2.747 2.438 3.899 5.782 3.452 10.033-.447 4.251-2.968 7.472-7.565 9.659-4.597 2.187-10.464 2.906-17.604 2.156-7.142-.751-12.553-2.635-16.233-5.655-3.683-3.02-5.323-6.434-4.921-10.246.097-.93.638-1.346 1.621-1.241l13.147 1.381c.898.094 1.597.434 2.098 1.017 1.082 1.218 3.099 1.981 6.049 2.29 4.061.427 6.156.043 6.281-1.155.077-.743-.501-1.398-1.739-1.966-1.237-.567-3.738-1.258-7.5-2.071-11.952-2.673-17.532-7.787-16.737-15.341.447-4.251 2.753-7.483 6.92-9.694 4.166-2.211 9.51-2.977 16.03-2.292 6.52.684 11.642 2.647 15.365 5.888 3.723 3.241 5.419 6.431 5.09 9.567-.044.423-.219.747-.525.973-.305.224-.691.313-1.163.263l-13.789-1.448c-.769-.081-1.408-.393-1.912-.936-.933-.995-2.425-1.602-4.477-1.817-2.866-.302-4.358.127-4.479 1.282-.065.62.439 1.162 1.514 1.629 1.075.468 3.261 1.064 6.557 1.785 6.929 1.521 11.769 3.498 14.518 5.938l.002.001z" fill="#29837A"/></svg>
